app/assets/v2/images/kudos/cellarius/bug_eliminator.svg

<svg viewBox="0 0 110.9 128" xmlns="http://www.w3.org/2000/svg"><path d="m55.4 0-55.4 32v64l55.4 32 55.5-32v-64z" fill="#766a68"/><g fill="#df9079"><path d="m9.4 90.6v-53.2l46-26.6 46 26.6v53.1l-46 26.6zm-9.4-58.6v64l55.4 32 55.4-32v-64l-55.4-32z" opacity=".38"/><path d="m11.8 89.2v-50.4l43.7-25.2 43.7 25.2v50.4l-43.7 25.2zm43.6-78.3-46 26.6v53.1l46 26.6 46-26.6v-53.2z" opacity=".13"/><path d="m55.4 94.5-26.4-15.2v-30.6l26.4-15.3 26.4 15.3v30.5zm-22.4-17.6 22.4 12.9 22.4-12.9v-25.8l-22.4-13-22.4 13z"/></g><path d="m89.4 33.2-3.6-2.1-30.4 30.1-30.4-30.1-3.5 2.1 31.1 30.8-31.1 30.8 3.5 2.1 30.4-30.1 30.4 30.1 3.6-2.1-31.1-30.8z" fill="#e6d9a5"/><path d="m99.1 61.8h-6.8v-19.1l-34.7-20v-7.8l-2.3-1.3-1.7 1v7.8l-35.1 20.3v19.5l-6.7.1v4l6.7-.1v19.2l34.8 20.1-.1 7.8 2.2 1.3 1.8-1 .1-7.8 35.1-20.3v-19.7h6.8v-4zm-10.8-16.8v16.9l-18 .1v-6.6l-12.8-7.4.1-20.7zm-32.9 31.6-10.9-6.3v-12.6l10.9-6.3 10.9 6.3v12.6zm-32.9-31.6 31.1-18-.1 20.8-13 7.5v6.7l-18 .1zm0 38v-16.9l18-.1v6.6l13 7.5-.2 20.7zm65.8 0-31 17.9.2-20.9 12.8-7.4v-6.7l18-.1z" fill="#df9079"/></svg>

<svg id="Layer_1" xmlns="http://www.w3.org/2000/svg" viewBox="0 0 110.9 128"><style>.st3{fill:#df9079}</style><path fill="#766a68" d="M55.4 0L0 32v64l55.4 32 55.5-32V32z"/><path d="M9.4 90.6V37.4l46-26.6 46 26.6v53.1l-46 26.6-46-26.5zM0 32v64l55.4 32 55.4-32V32L55.4 0 0 32z" opacity=".38" fill="#df9079"/><path class="st3" d="M11.8 89.2V38.8l43.7-25.2 43.7 25.2v50.4l-43.7 25.2-43.7-25.2zm43.6-78.3l-46 26.6v53.1l46 26.6 46-26.6V37.4l-46-26.5z" opacity=".13"/><path class="st3" d="M55.4 94.5L29 79.3V48.7l26.4-15.3 26.4 15.3v30.5L55.4 94.5zM33 76.9l22.4 12.9 22.4-12.9V51.1l-22.4-13-22.4 13v25.8z"/><path fill="#e6d9a5" d="M89.4 33.2l-3.6-2.1-30.4 30.1L25 31.1l-3.5 2.1L52.6 64 21.5 94.8l3.5 2.1 30.4-30.1 30.4 30.1 3.6-2.1L58.3 64z"/><path class="st3" d="M99.1 61.8h-6.8V42.7l-34.7-20v-7.8l-2.3-1.3-1.7 1v7.8L18.5 42.7v19.5l-6.7.1v4l6.7-.1v19.2l34.8 20.1-.1 7.8 2.2 1.3 1.8-1 .1-7.8 35.1-20.3V65.8h6.8v-4zM88.3 45v16.9l-18 .1v-6.6L57.5 48l.1-20.7L88.3 45zM55.4 76.6l-10.9-6.3V57.7l10.9-6.3 10.9 6.3v12.6l-10.9 6.3zM22.5 45l31.1-18-.1 20.8-13 7.5V62l-18 .1V45zm0 38V66.1l18-.1v6.6l13 7.5-.2 20.7L22.5 83zm65.8 0l-31 17.9.2-20.9 12.8-7.4v-6.7l18-.1V83z"/></svg>
